src/images/icons/employee-case-teeth.svg

<svg width="139" height="130" viewBox="0 0 139 130" fill="none" xmlns="http://www.w3.org/2000/svg">
<path d="M95.8418 46.8772C95.8418 46.8772 89.9952 42.6928 86.8604 40.4172C78.48 34.3338 77.7968 26.5325 69.4274 20.4339C61.9179 14.9618 52.1001 11.7316 43.6449 17.8261C38.1621 21.7782 36.9274 33.1335 31.6615 41.974C29.3054 45.9296 26.2964 48.8575 23.5416 51.6637C19.7088 55.568 15.853 61.6728 16.2809 69.09C16.5306 73.4181 19.6761 77.7261 23.8404 81.1064M48.9742 88.9665C51.2426 89.3639 53.5837 90.02 56.1006 91.2537C59.5789 92.9585 61.0956 94.7107 64.587 96.3886C72.562 100.221 80.6545 103.556 89.1417 105.368C90.866 105.737 99.8084 107.379 102.966 103.215C105.942 99.2889 102.149 95.1826 97.4217 91.4582M79.2634 76.8936C77.9802 74.9006 77.6114 72.7876 78.9589 70.5924C81.4788 66.4874 85.7579 67.3886 90.5758 69.6281M105.321 77.3908C110.594 80.0299 115.85 81.7647 118.448 77.6269C120.928 73.6779 117.808 68.6134 114.8 64.6918" stroke="white"/>
<mask id="path-2-inside-1" fill="white">
</mask>
<path d="M75.6993 40.2608C70.2121 30.7214 58.0307 27.4365 48.4913 32.9237L47.9927 32.0568C58.0108 26.2943 70.8036 29.7441 76.5662 39.7622L75.6993 40.2608ZM48.4913 32.9237C38.9519 38.4109 35.667 50.5923 41.1542 60.1317L40.2874 60.6303C34.5248 50.6122 37.9746 37.8194 47.9927 32.0568L48.4913 32.9237ZM41.1542 60.1317C43.1215 63.5518 45.9481 66.167 49.2049 67.863L48.743 68.7499C45.322 66.9684 42.3526 64.2207 40.2874 60.6303L41.1542 60.1317ZM69.7543 66.591C78.2099 60.763 80.9104 49.3202 75.6993 40.2608L76.5662 39.7622C82.039 49.2766 79.2026 61.2932 70.3218 67.4143L69.7543 66.591ZM66.1147 63.5612C73.496 59.3154 76.0378 49.8897 71.792 42.5084L72.6588 42.0098C77.18 49.8698 74.4734 59.9068 66.6133 64.4281L66.1147 63.5612ZM71.792 42.5084C67.5461 35.1271 58.1205 32.5853 50.7391 36.8311L50.2405 35.9643C58.1006 31.4431 68.1376 34.1497 72.6588 42.0098L71.792 42.5084ZM50.7391 36.8311C43.3578 41.077 40.816 50.5026 45.0619 57.884L44.195 58.3826C39.6738 50.5225 42.3805 40.4855 50.2405 35.9643L50.7391 36.8311ZM64.062 64.5502C64.7592 64.2755 65.4452 63.9463 66.1147 63.5612L66.6133 64.4281C65.9013 64.8376 65.1712 65.188 64.4287 65.4806L64.062 64.5502ZM45.0619 57.884C46.379 60.1738 48.1935 61.9968 50.2905 63.2966L49.7637 64.1465C47.5295 62.7618 45.5967 60.8193 44.195 58.3826L45.0619 57.884Z" fill="white" mask="url(#path-2-inside-1)"/>
<path d="M97.1646 50.7004C97.1646 48.5 95.6477 46.523 95.6477 46.523C95.6477 46.523 97.7661 46.9856 99.0937 46.9942C101.666 47.0107 109.746 46.6359 114.023 52.218C115.44 54.0673 117.403 59.8127 114.744 64.3363C113.643 66.2089 109.345 69.282 106.942 73.8021C105.119 77.2303 98.7157 89.6018 95.9557 92.7191C95.9557 92.7191 94.3446 95.371 92.0937 94.3825C90.2381 93.5676 92.6265 88.8646 92.6265 88.8646C92.6265 88.8646 89.7321 94.076 87.1785 92.7736C84.1179 91.2126 88.138 86.4616 88.138 86.4616C88.138 86.4616 82.4862 91.5731 79.8367 88.6646C76.8282 85.362 84.0882 81.8652 84.0882 81.8652C84.0882 81.8652 82.1417 81.4386 81.0197 80.7337C79.8978 80.0288 78.8503 78.8142 79.3043 77.4273C79.9984 75.3068 84.0526 75.7849 85.6307 75.0008C86.3476 74.6446 87.7479 73.6836 89.4462 71.6077C92.07 68.4005 93.439 65.8983 94.682 62.6753C97.0637 56.5 97.1646 53.3094 97.1646 50.7004Z" stroke="white"/>
<path d="M24.5969 81.2294C21.9821 80.77 19.5626 76.661 19.5626 76.661C19.5626 76.661 19.8762 79.1333 19.9221 80.6003C20.0109 83.4424 19.2627 92.6725 25.5552 97.2515C27.6398 98.7686 32.7928 101.566 38.9809 97.7277C41.0223 96.4615 44.3041 91.6307 49.2387 88.855C52.9812 86.7497 66.4918 79.3454 69.8647 76.2126C69.8647 76.2126 72.482 73.4529 71.4985 71.6214C70.3722 69.524 66.3325 71.1366 66.3325 71.1366C66.3325 71.1366 70.6902 68.6283 69.6844 66.511C68.0664 63.105 63.6804 66.1887 63.6804 66.1887C63.6804 66.1887 67.6914 60.2477 64.9374 58.5058C60.7591 55.863 57.5321 63.3844 57.5321 63.3844C57.5321 63.3844 57.148 61.2439 56.1963 60.0232C55.4526 59.0692 54.0514 57.7986 52.4916 58.2149C51.0928 58.5882 50.7023 62.315 49.9807 65.2708C49.4048 67.6298 48.7315 69.3998 46.8104 70.622C41.3017 74.1267 37.7468 74.747 31.5406 77.4933C28.7223 78.7404 27.6297 81.7623 24.5969 81.2294Z" stroke="white"/>
</svg>

<svg xmlns="http://www.w3.org/2000/svg" width="139" height="130" fill="none"><path stroke="#fff" d="M95.842 46.877s-5.847-4.184-8.982-6.46c-8.38-6.083-9.063-13.885-17.433-19.983-7.51-5.472-17.327-8.702-25.782-2.608-5.483 3.952-6.718 15.307-11.984 24.148-2.356 3.956-5.365 6.884-8.12 9.69-3.832 3.904-7.688 10.009-7.26 17.426.25 4.328 3.395 8.636 7.56 12.016m25.133 7.86c2.269.398 4.61 1.054 7.127 2.288 3.478 1.704 4.995 3.457 8.486 5.135 7.975 3.832 16.067 7.167 24.555 8.979 1.724.369 10.666 2.011 13.824-2.153 2.976-3.926-.817-8.032-5.544-11.757M79.263 76.894c-1.283-1.993-1.652-4.106-.304-6.302 2.52-4.105 6.799-3.203 11.617-.964m14.745 7.763c5.273 2.639 10.529 4.374 13.127.236 2.48-3.95-.64-9.014-3.648-12.935"/><path fill="#fff" d="M75.7 40.26c-5.488-9.539-17.67-12.823-27.209-7.336l-.498-.867c10.018-5.763 22.81-2.313 28.573 7.705l-.867.499zM48.49 32.925c-9.54 5.487-12.824 17.668-7.337 27.208l-.867.498c-5.762-10.018-2.312-22.81 7.706-28.573l.498.867zm-7.337 27.208a19.83 19.83 0 008.05 7.731l-.461.887a20.83 20.83 0 01-8.456-8.12l.867-.498zm28.6 6.459c8.456-5.828 11.156-17.27 5.945-26.33l.867-.499c5.473 9.515 2.637 21.531-6.244 27.652l-.568-.823zm-3.64-3.03c7.382-4.246 9.924-13.671 5.678-21.053l.867-.498c4.521 7.86 1.814 17.897-6.046 22.418l-.498-.867zm5.678-21.053c-4.246-7.38-13.672-9.923-21.053-5.677l-.498-.867c7.86-4.52 17.897-1.814 22.418 6.046l-.867.498zm-21.053-5.677c-7.381 4.246-9.923 13.672-5.677 21.053l-.867.499c-4.521-7.86-1.815-17.898 6.045-22.419l.5.867zm13.323 27.72a15.543 15.543 0 002.053-.99l.498.867c-.712.41-1.442.76-2.184 1.053l-.367-.93zm-19-6.667a15.348 15.348 0 005.229 5.413l-.527.85a16.347 16.347 0 01-5.569-5.764l.867-.499z" mask="url(#a)"/><path stroke="#fff" d="M97.165 50.7c0-2.2-1.517-4.177-1.517-4.177s2.118.463 3.446.471c2.572.017 10.652-.358 14.929 5.224 1.417 1.85 3.38 7.595.721 12.118-1.101 1.873-5.399 4.946-7.802 9.466-1.823 3.428-8.226 15.8-10.986 18.917 0 0-1.611 2.652-3.862 1.663-1.856-.814.532-5.517.532-5.517s-2.894 5.211-5.448 3.909c-3.06-1.561.96-6.312.96-6.312s-5.652 5.111-8.301 2.203c-3.009-3.303 4.251-6.8 4.251-6.8s-1.946-.426-3.068-1.131c-1.122-.705-2.17-1.92-1.716-3.307.694-2.12 4.749-1.642 6.327-2.426.717-.356 2.117-1.317 3.815-3.393 2.624-3.208 3.993-5.71 5.236-8.933 2.382-6.175 2.483-9.366 2.483-11.975z"/><path stroke="#fff" d="M24.597 81.23c-2.615-.46-5.034-4.569-5.034-4.569s.313 2.472.36 3.94c.088 2.841-.66 12.072 5.632 16.65 2.085 1.518 7.238 4.315 13.426.477 2.041-1.266 5.323-6.097 10.258-8.873 3.742-2.105 17.253-9.51 20.626-12.642 0 0 2.617-2.76 1.634-4.592-1.127-2.097-5.166-.484-5.166-.484s4.357-2.509 3.351-4.626c-1.618-3.406-6.004-.322-6.004-.322s4.011-5.941 1.257-7.683c-4.178-2.643-7.405 4.878-7.405 4.878s-.384-2.14-1.336-3.36c-.743-.955-2.145-2.225-3.704-1.81-1.4.374-1.79 4.101-2.511 7.057-.576 2.359-1.25 4.129-3.17 5.351-5.51 3.505-9.064 4.125-15.27 6.871-2.819 1.247-3.911 4.27-6.944 3.736z"/></svg>
